X: 100349
T: TOM BHUMB -- Contre Dance
R: reel
B: K\"ohler's Violin Repository, v.3, 1885 p.240 #1
F: http://www.archive.org/details/klersviolinrepos03rugg
Z: 2012 John Chambers <jc:trillian.mit.edu>
M: 2/4
L: 1/8
K: Bb
|: vB2FD | B2FD | B2FD  | (Bd)cB | (BA)GF | (GA)BA | (GF)ED | E2uF2 | uB,2z2 :|
|: v(Bd)dd | d2dc | (Bd)fd | (.B2.B2) | (dc)cc | c2cA | (FG)FE | (ED)CB, :|
|: v(df)ff | f2fg | (gf)ba | (gf)ed | (ef)gf | (ed)cB | (Ag)fe | (ed)cB :|

%%sep 2 1 500

